static/cog.svg

<?xml version="1.0" encoding="UTF-8" standalone="no"?>
<!-- Created with Inkscape (http://www.inkscape.org/) -->

<svg
   width="200mm"
   height="200mm"
   viewBox="0 0 200 200"
   version="1.1"
   id="svg1"
   xml:space="preserve"
   inkscape:version="1.3.2 (091e20e, 2023-11-25, custom)"
   sodipodi:docname="cog.svg"
   xmlns:inkscape="http://www.inkscape.org/namespaces/inkscape"
   xmlns:sodipodi="http://sodipodi.sourceforge.net/DTD/sodipodi-0.dtd"
   xmlns:xlink="http://www.w3.org/1999/xlink"
   xmlns="http://www.w3.org/2000/svg"
   xmlns:svg="http://www.w3.org/2000/svg"><sodipodi:namedview
     id="namedview1"
     pagecolor="#ffffff"
     bordercolor="#000000"
     borderopacity="0.25"
     inkscape:showpageshadow="2"
     inkscape:pageopacity="0.0"
     inkscape:pagecheckerboard="0"
     inkscape:deskcolor="#d1d1d1"
     inkscape:document-units="mm"
     inkscape:zoom="0.86457281"
     inkscape:cx="377.64315"
     inkscape:cy="481.7408"
     inkscape:window-width="3840"
     inkscape:window-height="2137"
     inkscape:window-x="3832"
     inkscape:window-y="-8"
     inkscape:window-maximized="1"
     inkscape:current-layer="layer2" /><defs
     id="defs1"><linearGradient
       id="linearGradient1"
       inkscape:collect="always"><stop
         style="stop-color:#000000;stop-opacity:1;"
         offset="0"
         id="stop1" /><stop
         style="stop-color:#252525;stop-opacity:1;"
         offset="1"
         id="stop2" /></linearGradient><linearGradient
       id="linearGradient3"
       inkscape:collect="always"><stop
         style="stop-color:#ccc4b3;stop-opacity:1;"
         offset="0"
         id="stop4" /><stop
         style="stop-color:#b7ac94;stop-opacity:1;"
         offset="1"
         id="stop3" /></linearGradient><linearGradient
       inkscape:collect="always"
       xlink:href="#linearGradient3"
       id="linearGradient4"
       x1="35.300934"
       y1="69.646133"
       x2="129.9438"
       y2="123.04874"
       gradientUnits="userSpaceOnUse"
       gradientTransform="matrix(1.2244491,0,0,1.2244491,-17.277649,-28.012922)" /><linearGradient
       inkscape:collect="always"
       xlink:href="#linearGradient1"
       id="linearGradient2"
       x1="127.33915"
       y1="143.2549"
       x2="50.817699"
       y2="18.743345"
       gradientUnits="userSpaceOnUse" /></defs><g
     inkscape:groupmode="layer"
     id="layer2"
     inkscape:label="main layer"
     style="display:inline"><path
       id="path2"
       style="display:inline;fill:url(#linearGradient4);stroke:url(#linearGradient2);stroke-width:11.02;stroke-linecap:round;stroke-linejoin:round;stroke-dasharray:none"
       inkscape:label="cog"
       d="M 80.306726 8.3405762 L 78.120296 33.70802 A 70.414149 70.414149 0 0 0 53.652539 47.283936 L 31.299898 36.825142 L 11.258744 71.59873 L 30.983639 85.26663 A 70.414149 70.414149 0 0 0 29.091248 100.69308 A 70.414149 70.414149 0 0 0 30.653426 114.59921 L 10.979175 128.33739 L 31.073556 163.08049 L 52.462948 152.97826 A 70.414149 70.414149 0 0 0 78.467045 167.80733 L 80.525317 191.69321 L 120.66085 191.6622 L 122.69639 167.00428 A 70.414149 70.414149 0 0 0 147.25975 152.26564 L 170.1028 163.05465 L 190.19718 128.31155 L 168.64759 113.26389 A 70.414149 70.414149 0 0 0 169.91934 100.69308 A 70.414149 70.414149 0 0 0 168.35923 86.031958 L 189.69798 71.24578 L 169.65683 36.471676 L 145.77715 47.644637 A 70.414149 70.414149 0 0 0 122.57236 34.178792 L 120.44226 8.371582 L 80.306726 8.3405762 z M 100.58818 75.277576 A 24.739288 24.739288 0 0 1 125.32723 100.01663 A 24.739288 24.739288 0 0 1 100.58818 124.75621 A 24.739288 24.739288 0 0 1 75.849117 100.01663 A 24.739288 24.739288 0 0 1 100.58818 75.277576 z " /></g></svg>

<?xml version="1.0" encoding="UTF-8"?>
<!-- Created with Inkscape (http://www.inkscape.org/) -->
<svg id="svg1" width="200mm" height="200mm" version="1.1" viewBox="0 0 200 200" xml:space="preserve" xmlns="http://www.w3.org/2000/svg" xmlns:xlink="http://www.w3.org/1999/xlink"><defs id="defs1"><linearGradient id="linearGradient4" x1="35.301" x2="129.94" y1="69.646" y2="123.05" gradientTransform="matrix(1.2244 0 0 1.2244 -17.278 -28.013)" gradientUnits="userSpaceOnUse"><stop id="stop4" stop-color="#ccc4b3" offset="0"/><stop id="stop3" stop-color="#b7ac94" offset="1"/></linearGradient><linearGradient id="linearGradient2" x1="127.34" x2="50.818" y1="143.25" y2="18.743" gradientUnits="userSpaceOnUse"><stop id="stop1" offset="0"/><stop id="stop2" stop-color="#252525" offset="1"/></linearGradient></defs><g id="layer2"><path id="path2" d="m80.307 8.3406-2.1864 25.367a70.414 70.414 0 0 0-24.468 13.576l-22.353-10.459-20.041 34.774 19.725 13.668a70.414 70.414 0 0 0-1.8924 15.426 70.414 70.414 0 0 0 1.5622 13.906l-19.674 13.738 20.094 34.743 21.389-10.102a70.414 70.414 0 0 0 26.004 14.829l2.0583 23.886 40.136-0.03101 2.0355-24.658a70.414 70.414 0 0 0 24.563-14.739l22.843 10.789 20.094-34.743-21.55-15.048a70.414 70.414 0 0 0 1.2718-12.571 70.414 70.414 0 0 0-1.5601-14.661l21.339-14.786-20.041-34.774-23.88 11.173a70.414 70.414 0 0 0-23.205-13.466l-2.1301-25.807-40.136-0.031006zm20.281 66.937a24.739 24.739 0 0 1 24.739 24.739 24.739 24.739 0 0 1-24.739 24.74 24.739 24.739 0 0 1-24.739-24.74 24.739 24.739 0 0 1 24.739-24.739z" fill="url(#linearGradient4)" stroke="url(#linearGradient2)" stroke-linecap="round" stroke-linejoin="round" stroke-width="11.02"/></g></svg>
